X: 1
T: Hold The Reins
M: 4/4
L: 1/8
R: reel
K: Gmaj
g3 d BG G2 | ABcA defd | g2 dc BG G2 | AdcA GABd |
gedc BG G2 | ABcA defd | g2 dc BG G2 | AdcA G4 :|
df f2 dg g2 | df f2 edcA | df f2 dg g2 | fdcA GABc |
df f2 dg g2 | dffd edcA | g2 ga bgag | fdcA G4 :|
